X: 481
T: Oj ?oneczka – No. 4
C: Józef Stefani
L: 1/8
M: 2/4
N: Derived from pl-wtm--r-1690--005_stefani-jozef--oj-zoneczka-no-4.krn
Q: "Allo."
V: 1 clef=treble
V: 2 clef=treble
V: 3 clef=treble
V: 4 clef=treble
V: 5 clef=treble
V: 6 clef=treble
V: 7 clef=alto
V: 8 clef=bass
K: D
[V:1] z2 [I:setbarnb 1]| 
[V:2] d'e' | 
[V:3] de & dc | 
[V:4] z2 | 
[V:5] z2 | 
[V:6] z2 | 
[V:7] z2 | 
[V:8] z2 | 
[V:1] z4 | 
[V:2] f'2e'2 | 
[V:3] f2e2 & d2c2 | 
[V:4] [F2D2][E2A,2] | 
[V:5] z4 | 
[V:6] z4 | 
[V:7] z4 | 
[V:8] z4 | 
[V:1] z4 | 
[V:2] d' z d'e' | 
[V:3] d z de & d x dc | 
[V:4] [DF,] zz2 | 
[V:5] z4 | 
[V:6] z4 | 
[V:7] z4 | 
[V:8] z4 | 
[V:1] z4 | 
[V:2] f'2e'2 | 
[V:3] f2e2 & d2c2 | 
[V:4] [F2D2][E2A,2] | 
[V:5] z4 | 
[V:6] z4 | 
[V:7] z4 | 
[V:8] z4 | 
[V:1] z2A G | 
[V:2] d' zz2 | 
[V:3] d zz2 & d xx2 | 
[V:4] [DF,] zz2 | 
[V:5] z4 | 
[V:6] z4 | 
[V:7] z4 | 
[V:8] z4 | 
[V:1] F A G B | 
[V:2] z4 | 
[V:3] z4 | 
[V:4] z4 | 
[V:5] z F z G | 
[V:6] z D z D | 
[V:7] z A, z B, | 
[V:8] D, z D, z | 
[V:1] A2A A | 
[V:2] z4 | 
[V:3] z4 | 
[V:4] z4 | 
[V:5] z F z F | 
[V:6] z D z D | 
[V:7] z A, z A, | 
[V:8] D, z D, z | 
[V:1] G A F A/ A/ | 
[V:2] z4 | 
[V:3] z4 | 
[V:4] z4 | 
[V:5] z G z F | 
[V:6] z E z D | 
[V:7] z A, z A, | 
[V:8] C, z D, z | 
[V:1] E E A G | 
[V:2] z4 | 
[V:3] z4 | 
[V:4] z4 | 
[V:5] z E A G | 
[V:6] z C F E | 
[V:7] z A,z2 | 
[V:8] A,, zz2 | 
[V:1] F A G B | 
[V:2] z4 | 
[V:3] z4 | 
[V:4] z4 | 
[V:5] z F z G | 
[V:6] z D z D | 
[V:7] z A, z B, | 
[V:8] D, z D, z | 
[V:1] A A d B | 
[V:2] z4 | 
[V:3] z4 | 
[V:4] z4 | 
[V:5] z F z F | 
[V:6] z D z D | 
[V:7] z A, z B, | 
[V:8] D, z B,, z | 
[V:1] A A B ^G | 
[V:2] z2z2 | 
[V:3] z2z2 | 
[V:4] z2z2 | 
[V:5] z A z ^G | 
[V:6] z E z D | 
[V:7] z C z B, | 
[V:8] E, z E, z | 
[V:1] B A A A | 
[V:2] z4 | 
[V:3] z4 | 
[V:4] z4 | 
[V:5] z A z A | 
[V:6] z C z E | 
[V:7] z A, z C | 
[V:8] A,, z A, z | 
[V:1] ^A A ^G A | 
[V:2] z4 | 
[V:3] z4 | 
[V:4] z4 | 
[V:5] z ^A z A | 
[V:6] z E z E | 
[V:7] z C z C | 
[V:8] F, z F, z | 
[V:1] B F B B | 
[V:2] z4 | 
[V:3] z4 | 
[V:4] z4 | 
[V:5] z B z B | 
[V:6] z D z F | 
[V:7] z B, z D | 
[V:8] B,, z B,, z | 
[V:1] c c B c | 
[V:2] z4 | 
[V:3] z4 | 
[V:4] z4 | 
[V:5] z c z c | 
[V:6] z F z F | 
[V:7] z E z E | 
[V:8] ^A,, z A,, z | 
[V:1] d B/ !fermata!z/ =A ^G | 
[V:2] !fermata!z4 | 
[V:3] !fermata!z4 | 
[V:4] !fermata!z4 | 
[V:5] z B/ !fermata!z/ =A^G | 
[V:6] z F/ !fermata!z/ EE | 
[V:7] z D/ !fermata!z/ A,A, | 
[V:8] B,, !fermata!z C, z | 
[V:1] F A G B | 
[V:2] z4 | 
[V:3] z4 | 
[V:4] z4 | 
[V:5] z F z G | 
[V:6] z D z D | 
[V:7] z A, z B, | 
[V:8] D, z D, z | 
[V:1] A A d B | 
[V:2] z4 | 
[V:3] z4 | 
[V:4] z4 | 
[V:5] z F z G | 
[V:6] z D z D | 
[V:7] z A, z B, | 
[V:8] D, z G,, z | 
[V:1] A F G E | 
[V:2] z4 | 
[V:3] z4 | 
[V:4] z4 | 
[V:5] z F z E | 
[V:6] z D z C | 
[V:7] z A, z B, | 
[V:8] A,, z A,, z | 
[V:1] G F d G | 
[V:2] z2z2 | 
[V:3] z2z2 | 
[V:4] z2z2 | 
[V:5] z F z G | 
[V:6] z D z D | 
[V:7] z A, z B, | 
[V:8] D, z G,, z | 
[V:1] F D G E | 
[V:2] z4 | 
[V:3] z4 | 
[V:4] z4 | 
[V:5] z F z E | 
[V:6] z D z C | 
[V:7] z A, z A, | 
[V:8] A,, z A,, z | 
[V:1] D Dz2 | 
[V:2] z2a2 | 
[V:3] z2[c2A2] | 
[V:4] z2[E2A,2] | 
[V:5] z Dz2 | 
[V:6] z Dz2 | 
[V:7] z Dz2 | 
[V:8] D, zz2 | 
[V:1] z4 | 
[V:2] f2e2 | 
[V:3] [d2A2][c2A2] | 
[V:4] [F2D2][E2A,2] | 
[V:5] z4 | 
[V:6] z4 | 
[V:7] z4 | 
[V:8] z4 | 
[V:1] z4 | 
[V:2] f zz2 | 
[V:3] [dA] zz2 | 
[V:4] [DF,] zz2 | 
[V:5] z2A2 | 
[V:6] z2C2 | 
[V:7] z2E,2 | 
[V:8] z2A,,2 | 
[V:1] z4 | 
[V:2] z4 | 
[V:3] z4 | 
[V:4] z4 | 
[V:5] F2E2 | 
[V:6] D2C2 | 
[V:7] F,2A,2 | 
[V:8] D,2A,,2 | 
[V:1] z4 | 
[V:2] z2d'2 | 
[V:3] z2[f2A2] | 
[V:4] z2[F2D2] | 
[V:5] D z[d2F2] | 
[V:6] D z[F2A,2] | 
[V:7] F, z[D2F,2] | 
[V:8] D, zD,2 | 
[V:1] z4 |]  
[V:2] d'2z2 |]  
[V:3] [f2A2]z2 |]  
[V:4] [F2D2]z2 |]  
[V:5] [d2F2]z2 |]  
[V:6] [F2A,2]z2 |]  
[V:7] [D2F,2]z2 |]  
[V:8] D,2z2 |]  

